wp-content/themes/quarkexpeditions/src/assets/svg/info.svg

<svg class="icon info-icon" xmlns="http://www.w3.org/2000/svg" width="25" height="24" viewBox="0 0 25 24" fill="none">
  <mask id="mask0_1698_3696" style="mask-type:alpha" maskUnits="userSpaceOnUse" x="0" y="0" width="25" height="24">
    <rect x="0.400024" width="24" height="24" fill="#D9D9D9"/>
  </mask>
  <g mask="url(#mask0_1698_3696)">
    <path d="M11.4 17H13.4V11H11.4V17ZM12.4 9C12.6834 9 12.9209 8.90417 13.1125 8.7125C13.3042 8.52083 13.4 8.28333 13.4 8C13.4 7.71667 13.3042 7.47917 13.1125 7.2875C12.9209 7.09583 12.6834 7 12.4 7C12.1167 7 11.8792 7.09583 11.6875 7.2875C11.4959 7.47917 11.4 7.71667 11.4 8C11.4 8.28333 11.4959 8.52083 11.6875 8.7125C11.8792 8.90417 12.1167 9 12.4 9ZM12.4 22C11.0167 22 9.71669 21.7375 8.50002 21.2125C7.28336 20.6875 6.22502 19.975 5.32502 19.075C4.42502 18.175 3.71252 17.1167 3.18752 15.9C2.66252 14.6833 2.40002 13.3833 2.40002 12C2.40002 10.6167 2.66252 9.31667 3.18752 8.1C3.71252 6.88333 4.42502 5.825 5.32502 4.925C6.22502 4.025 7.28336 3.3125 8.50002 2.7875C9.71669 2.2625 11.0167 2 12.4 2C13.7834 2 15.0834 2.2625 16.3 2.7875C17.5167 3.3125 18.575 4.025 19.475 4.925C20.375 5.825 21.0875 6.88333 21.6125 8.1C22.1375 9.31667 22.4 10.6167 22.4 12C22.4 13.3833 22.1375 14.6833 21.6125 15.9C21.0875 17.1167 20.375 18.175 19.475 19.075C18.575 19.975 17.5167 20.6875 16.3 21.2125C15.0834 21.7375 13.7834 22 12.4 22Z" fill="#4C8BBF"/>
  </g>
</svg>

<svg class="icon info-icon" xmlns="http://www.w3.org/2000/svg" width="25" height="24" fill="none"><mask id="a" style="mask-type:alpha" maskUnits="userSpaceOnUse" x="0" y="0" width="25" height="24"><path fill="#D9D9D9" d="M.4 0h24v24H.4z"/></mask><g mask="url(#a)"><path d="M11.4 17h2v-6h-2v6Zm1-8c.283 0 .52-.096.713-.287A.967.967 0 0 0 13.4 8a.967.967 0 0 0-.287-.713A.967.967 0 0 0 12.4 7a.968.968 0 0 0-.713.287A.968.968 0 0 0 11.4 8c0 .283.096.52.287.713.192.191.43.287.713.287Zm0 13a9.738 9.738 0 0 1-3.9-.788 10.099 10.099 0 0 1-3.175-2.137c-.9-.9-1.612-1.958-2.137-3.175A9.738 9.738 0 0 1 2.4 12c0-1.383.263-2.683.788-3.9a10.099 10.099 0 0 1 2.137-3.175c.9-.9 1.958-1.612 3.175-2.137A9.738 9.738 0 0 1 12.4 2c1.383 0 2.683.263 3.9.788a10.098 10.098 0 0 1 3.175 2.137c.9.9 1.612 1.958 2.137 3.175A9.738 9.738 0 0 1 22.4 12a9.738 9.738 0 0 1-.787 3.9 10.098 10.098 0 0 1-2.138 3.175c-.9.9-1.958 1.613-3.175 2.137a9.737 9.737 0 0 1-3.9.788Z" fill="#4C8BBF"/></g></svg>
